X: 1
T: String Quartet in G Major opus 54 no 1 mvt 1
C: Franz Joseph Haydn
%%abc-version 2.0
%%abcx-abcm2ps-target-version 5.9.1 (29 Sep 2008)
%%abc-creator hum2abc beta
%%abcx-conversion-date 2021/02/14 14:38:30
%%abc-copyright Copyright (c) 1994, 2000 Center for Computer Assisted Research in the Humanities
%%abc-edited-by Frances Bennion
%%abcx-initial-encoding-date 1997/04/15
%%gracespace 0 6 6
%%humdrum-veritas 434870808
%%humdrum-veritas-data 812215859
%%linebreak <none>
%%barnumbers 0
L: 1/8
M: 4/4
N: Derived from op54n1-01.krn
Q: "Vivace assai"
%%staves [1 2 3 4]
V: 1
V: 2
V: 3 clef=alto
V: 4 clef=bass
K: G
[V:1]g6 f/g/b/g/ [I:setbarnb2] |
[V:2][BD][BD] [BD][BD] [BD][BD] [BD][BD] |
[V:3]B,B, B,B, B,B, B,B, |
[V:4]G,G, G,G, G,G, G,G, |
[V:1]dd dd dd dd |
[V:2][BD][DB] [DB][DB] [BD][BD] [BD][BD] |
[V:3]B,B, B,B, B,B, B,B, |
[V:4]G,G, G,G, G,G, G,G, |
[V:1]d'4- d'/^c'/d'/c'/ d'/b/=c'/a/ |
[V:2][D8c8] |
[V:3]A,8 |
[V:4]F,F, F,F, F,F, F,F, |
[V:1]g2 zG _A=A _B=B |
[V:2][D2B2] z6 |
[V:3]B,G GG GG GG |
[V:4]G,2 zB, C^C D^D |
[V:1]c/d/c/B/ c/e/d/c/ B2 z2 |
[V:2]z4 zf/g/ f/g/f/g/ |
[V:3]GG GG GG GG |
[V:4]EE EE DD DD |
[V:1]A/^G/A/G/ A/c/B/A/ =G2 z2 |
[V:2]z4 z^C/D/ C/D/C/D/ |
[V:3]GG GG GG GG |
[V:4]CC CC B,B, B,B, |
[V:1]A4- A/_B/=B/c/ ^c/d/e/d/ |
[V:2]C8 |
[V:3]D8- |
[V:4]F,F, F,F, F,F, F,F, |
[V:1]c/B/A/G/ F/G/A/G/ A/_B/=B/c/ ^c/d/e/d/ |
[V:2]B,4 C4 |
[V:3]D8 |
[V:4]G,G, G,G, F,F, F,F, |
[V:1]c/B/A/G/ F/G/A/G/ A/_B/=B/c/ ^c/d/e/d/ |
[V:2]B,4 C4 |
[V:3]D8- |
[V:4]G,G, G,G, F,F, F,F, |
[V:1]c/B/A/G/ F/G/F/G/ gg gg |
[V:2]B,4 GG GG |
[V:3]D8 |
[V:4]G,G, G,G, B,,/C,/^C,/D,/ ^D,/E,/F,/G,/ |
[V:1]fe ee e/f/g/^g/ a/b/c'/a/ |
[V:2]FE EE E/F/G/^G/ A/B/c/A/ |
[V:3]G,/F,/G,/F,/ G,/^G,/A,/G,/ A,2 z2 |
[V:4]C,C, C,C, C,4 |
[V:1]g2 zd' d'd' d'/c'/b/a/ |
[V:2]G2 zB BB cc |
[V:3]z2 >G2 GG FF |
[V:4]D,2 zD, D,D, D,D, |
[V:1]g2 zg gg gg |
[V:2]BG GG GG GG |
[V:3]G2 zB, B,/C/^C/D/ ^D/E/F/G/ |
[V:4]G,2 z6 |
[V:1]fe ee e/f/g/^g/ a/b/c'/a/ |
[V:2]G/F/G/F/ G/^G/A/G/ A2 z2 |
[V:3]CC CC CC CC |
[V:4]z8 |
[V:1]g2 zd' d'd' d'/c'/b/a/ |
[V:2]B2 zB BB cc |
[V:3]D2 zG GG FF |
[V:4]z2 >D,2 D,D, D,D, |
[V:1]g2 zD DD D/C/B,/A,/ |
[V:2]B2 zD DD D/C/B,/A,/ |
[V:3]G2 zD DD D/C/B,/A,/ |
[V:4]G,2 zD, D,D, D,/C,/B,,/A,,/ |
[V:1]G,4 A,2 B,2 |
[V:2]G,2 z6 |
[V:3]G,4 F,2 =F,2 |
[V:4]G,,G,, G,,G,, G,,G,, G,,G,, |
[V:1]C2 E4 D2 |
[V:2]z2 C4 B,2 |
[V:3]E,4 F,2 G,2 |
[V:4]G,,G,, G,,G,, G,,G,, G,,G,, |
[V:1]G4 A2 B2 |
[V:2]B,2 G2 F2 =F2 |
[V:3]B,4 C2 D2 |
[V:4]G,,G,, G,,G,, G,,G,, G,,G,, |
[V:1]c2 _e4 d2 |
[V:2]_E2 c4 _B2 |
[V:3]_E2 F4 G2 |
[V:4]G,,G,, G,,G,, G,,G,, G,,G,, |
[V:1]^c4- c/d/c/d/ c/d/e/c/ |
[V:2]G8 |
[V:3]E8 |
[V:4]A,,A,, A,,A,, A,,A,, A,,A,, |
[V:1]d2 ^c/d/e/c/ dd c/d/e/c/ |
[V:2]F2 G2 FF GG |
[V:3]D2 E/D/^C/E/ DD E/D/C/E/ |
[V:4]D,D, A,A, DD A,A, |
[V:1]dz dz dz3 |
[V:2]F2 F2 F2 z2 |
[V:3]D2 D2 D2 z2 |
[V:4]D2 D2 D2 z2 |
[V:1]g6 f/g/b/g/ |
[V:2]BB BB BB BB |
[V:3]GG GG GG GG |
[V:4]G,G, G,G, G,G, G,G, |
[V:1]dd dd dd dd |
[V:2]BB BB BB BB |
[V:3]GG GG GG GG |
[V:4]G,G, G,G, G,G, G,G, |
[V:1]^ce' e'2- e'/^c'/d'/b/ c'/a/b/g/ |
[V:2]G^c cc cc cc |
[V:3]EG GG GG GE |
[V:4]A,,A,, A,,A,, A,,A,, A,,A,, |
[V:1]fa aa a4- |
[V:2]d2 zd d/f/e/d/ ^c/e/d/c/ |
[V:3]D2 zF F/A/G/F/ E/G/F/E/ |
[V:4]D,2 z6 |
[V:1]a/b/^c'/d'/ aa a4- |
[V:2]d2 zd d/f/e/d/ ^c/e/d/c/ |
[V:3]F2 zF F/A/G/F/ E/G/F/E/ |
[V:4]z8 |
[V:1]a/b/^c'/d'/ aa a4- |
[V:2]d2 zd d/f/e/d/ ^c/e/d/c/ |
[V:3]F2 zF F/A/G/F/ E/G/F/E/ |
[V:4]z8 |
[V:1]a^g gg ag gg |
[V:2]B8 |
[V:3]D/E/=F/E/ D/E/F/E/ D/E/F/E/ D/F/E/D/ |
[V:4]z8 |
[V:1][Bb][Aa] [aA][aA] [bB][aA] [aA][aA] |
[V:2]E/F/G/F/ E/F/G/F/ E/F/G/F/ E/G/F/E/ |
[V:3]^C/D/E/D/ C/D/E/D/ C/D/E/D/ C/E/D/C/ |
[V:4]A,,8 |
[V:1]a/f/d'/^c'/ d'/a/f'/e'/ d'/c'/b/a/ g/f/e/d/ |
[V:2]Fz Az dz fz |
[V:3]Dz Fz Az dz |
[V:4]D,2 z6 |
[V:1]^c2 z6 |
[V:2]^c/A/e/d/ e/A/g/f/ g/f/e/d/ c/B/A/G/ |
[V:3]A,z ^Cz Ez Gz |
[V:4]A,2 zA, A,A, A,/G,/F,/E,/ |
[V:1]a/f/d'/^c'/ d'/a/f'/e'/ d'/c'/b/a/ g/f/e/d/ |
[V:2]Fz Az dz fz |
[V:3]Dz Fz Az dz |
[V:4]D,2 z6 |
[V:1]^c2 z6 |
[V:2]^c/A/e/d/ e/A/g/f/ g/f/e/d/ c/B/A/G/ |
[V:3]A,z ^Cz Ez Gz |
[V:4]A,2 zA,, A,,A,, A,,/G,,/F,,/E,,/ |
[V:1]a/f/d'/^c'/ d'/a/f'/e'/ d'/c'/b/a/ g/f/e/d/ |
[V:2]Fz Az dz fz |
[V:3]Dz Fz Az Dz |
[V:4]D,,4 F,4 |
[V:1]^c4 =c2 B2 |
[V:2]D4 ^D2 E2 |
[V:3]G,2 z6 |
[V:4]G,G, G,G, G,G, G,G, |
[V:1]A/_B/=B/c/ ^c/d/e/=f/ ^f/g/^g/a/ ^a/b/=g/e/ |
[V:2]F2 z6 |
[V:3]D2 z6 |
[V:4]A,2 z6 |
[V:1]d2 >>A2 e4 |
[V:2]F4 G4 |
[V:3]D4 ^C4 |
[V:4]A,A, A,A, A,,A,, A,,A,, |
[V:1]d2 zd ^c/z/B A/z/^G |
[V:2]F2 zA G/z/F E/z/D |
[V:3]D2 zF E/z/D ^C/z/B, |
[V:4]D,2 z6 |
[V:1]BA A/z/G F/z/E D/z/^C |
[V:2]^C3/z6 z/ |
[V:3]A,2 zD ^C/z/B, A,/z/G, |
[V:4]z2 >B,2 A,/z/G, F,/z/E, |
[V:1]ED D/z/E G/z/F A/z/G |
[V:2]z4 A,2 z2 |
[V:3]F,2 z6 |
[V:4]D,z2 ^C, E,/z/D, F,/z/E, |
[V:1]B2 >e2 ^c3 B/c/ |
[V:2]D4 G4 |
[V:3]G4 E3 D/E/ |
[V:4][G,,4G,4] A,,4 |
[V:1]d2 za aa a/g/f/e/ |
[V:2]F2 zd ^c/d/c/d/ c/e/d/c/ |
[V:3]D2 z2 G4 |
[V:4]D,D, D,D, D,D, D,D, |
[V:1]d2 zA AA A/G/F/E/ |
[V:2]d2 zD ^C/D/C/D/ C/E/D/C/ |
[V:3]F2 z2 G,4 |
[V:4]D,D, D,D, D,D, D,D, |
[V:1]D2 zF FF F/G/A/B/ |
[V:2]D2 zD DD D/E/F/G/ |
[V:3]F,2 zA, A,A, A,/G,/F,/E,/ |
[V:4]D,D, D,D, D,D, D,D, |
[V:1]c2 >^c2 d^d ef |
[V:2]A2 z6 |
[V:3]D,2 z6 |
[V:4]D,2 z6 |
[V:1]g6 f/g/_b/g/ |
[V:2][_BD][BD] [DB][BD] [DB][BD] [DB][BD] |
[V:3]_B,B, B,B, B,B, B,B, |
[V:4]G,,G, G,G, G,G, G,G, |
[V:1]dd dd dd dd |
[V:2][D_B][BD] [DB][BD] [DB][BD] [BD][BD] |
[V:3]_B,B, B,B, B,B, B,B, |
[V:4]G,G, G,G, G,G, G,G, |
[V:1]d'4- d'/^c'/d'/c'/ d'/_b/=c'/d'/ |
[V:2][_BD][DB] [DB][BD] [BD][BD] [DB][BD] |
[V:3]_AA AA AA AA |
[V:4]=F,F, F,F, F,F, F,F, |
[V:1]_e'2 z_b bb b/_a/g/=f/ |
[V:2][_B2_E2] z_e d/e/d/e/ d/=f/e/d/ |
[V:3]G2 zG =F/G/F/G/ F_A |
[V:4]_E,E, E,E, _B,,B,, B,,B,, |
[V:1]_e2 z_B BB B/_A/G/=F/ |
[V:2]_e2 z_E D/E/D/E/ D/=F/E/D/ |
[V:3]G2 zG, =F,/G,/F,/G,/ F,_A, |
[V:4]_E,,E,, E,,E,, _B,,B,, B,,B,, |
[V:1]_E4 =F2 G2 |
[V:2]_E4 D2 ^C2 |
[V:3]G,4 _A,2 _B,2 |
[V:4]_E,E, E,E, E,E, E,E, |
[V:1]_A2 c4 _B2 |
[V:2]C2 ^G4 =G2 |
[V:3]C4 D2 _E2 |
[V:4]_E,E, E,E, E,E, E,E, |
[V:1]_e4 =f2 g2 |
[V:2]_e4 d2 _d2 |
[V:3]_E,2 z6 |
[V:4]_EE EE EE EE |
[V:1]_a2 c'4 _b2 |
[V:2]c2 _a4 g2 |
[V:3]z8 |
[V:4]_EE EE =EE EE |
[V:1]a8- |
[V:2]_e2 _g4 =f2 |
[V:3]c2 _e4 _d2 |
[V:4]=FF FF FF FF |
[V:1]a2 c'4 _b2 |
[V:2]_e2 e4 d2 |
[V:3]c2 A4 _B2 |
[V:4]FF FF FF FF |
[V:1]a2 a4 g2 |
[V:2]c2 c4 c2 |
[V:3]c2 _e4 e2 |
[V:4]F2 F4 G2 |
[V:1]f2 >>g2 f/g/f/g/ f/g/a/f/ |
[V:2]c8 |
[V:3]_e4 d4- |
[V:4]A8 |
[V:1]g2 zd' d'd' d'/c'/_b/a/ |
[V:2]_B2 zg f/g/f/g/ f/a/g/f/ |
[V:3]d2 z_B A/B/A/B/ Ad |
[V:4]GG, G,G, D,D, D,D, |
[V:1]g2 zd dd d/c/_B/A/ |
[V:2]g2 zG F/G/F/G/ F/A/G/F/ |
[V:3]_B2 z_B, A,/B,/A,/B,/ A,D |
[V:4]G,G,, G,,G,, D,D, D,D, |
[V:1]G2 zD DD D/C/B,/A,/ |
[V:2]G2 z6 |
[V:3]_B,4 A,4 |
[V:4]G,G,, G,,G,, =F,,F,, F,,F,, |
[V:1]^G,4 ^G4 |
[V:2]z2 >=f2 ff e/d/c/B/ |
[V:3]B,4 [B,4D4] |
[V:4]E,,E,, E,,E,, E,,E,, E,,E,, |
[V:1]A2 >c2 cc B/A/^G/A/ |
[V:2]c4 ^D4 |
[V:3][C4E4] A,4 |
[V:4]E,,E,, E,,E,, E,,E,, E,,E,, |
[V:1]E4 F2 ^G2 |
[V:2]E4 ^D2 =D2 |
[V:3]^G,4 A,2 B,2 |
[V:4]E,,E,, E,,E,, E,,E,, E,,E,, |
[V:1]A2 c4 B2 |
[V:2]C2 A4 ^G2 |
[V:3]C2 ^D4 E2 |
[V:4]E,,E,, E,,E,, E,,E,, E,,E,, |
[V:1]e4 ^d2 =d2 |
[V:2]E4 F2 ^G2 |
[V:3]^G4 A2 B2 |
[V:4]E,,E,, E,,E,, E,,E,, E,,E,, |
[V:1]^c2 =c4 B2 |
[V:2]A2 A4 ^G2 |
[V:3]A2 ^D4 E2 |
[V:4]E,,2 z6 |
[V:1]z2 c4 B2 |
[V:2]z2 A4 ^G2 |
[V:3]z2 ^D4 E2 |
[V:4]z8 |
[V:1]z2 ^d4 e2 |
[V:2]z2 c4 B2 |
[V:3]z2 A4 ^G2 |
[V:4]z8 |
[V:1]z2 ^c4 d2 |
[V:2]z2 _B4 A2 |
[V:3]z2 G4 F2 |
[V:4]z8 |
[V:1]z2 [D4B4] d2 |
[V:2]z2 [G,4=F4] [G,2F2] |
[V:3]z2 =F4 B,2 |
[V:4]z2 G,,4 G,,2 |
[V:1]c6 B/c/e/c/ |
[V:2][G,2E2] z6 |
[V:3]CE EE EE EE |
[V:4]C,C, C,C, C,C, C,C, |
[V:1]GG GG GG GG |
[V:2]=f6 e/f/a/f/ |
[V:3][BD][BD] [BD][BD] [BD][BD] [BD][BD] |
[V:4]C,C, C,C, C,C, C,C, |
[V:1]g6 f/g/b/g/ |
[V:2]eA AA AA AA |
[V:3][cE]E EE EE EE |
[V:4]C,^C, C,C, C,C, C,C, |
[V:1]dd dd dd dd |
[V:2]A6 ^G/A/B/A/ |
[V:3]F6 E/F/G/F/ |
[V:4]D,D, D,D, D,D, D,D, |
[V:1]a6 ^g/a/c'/a/ |
[V:2]F8 |
[V:3]B8- |
[V:4]^D,D, D,D, D,D, D,D, |
[V:1]g4 e3 ^d/e/ |
[V:2]G4 ^A4 |
[V:3]B2 G4 E2 |
[V:4]E,E, E,E, C,C, C,C, |
[V:1]^d2 zB BB B/A/G/F/ |
[V:2]BB, B,B, B,B, B,B, |
[V:3]F2 z2 >G,2 G,G, |
[V:4]B,,2 z2 >E,2 E,E, |
[V:1]E2 ze ee e/d/c/B/ |
[V:2]E/F/G/^G/ A/B/c/B/ c2 zE |
[V:3]G,/F,/E,/D,/ C,2 zC CC |
[V:4]E,/D,/C,/B,,/ A,,2 zA, A,A, |
[V:1]A2 za aa a/g/f/e/ |
[V:2]A/B/c/^c/ d/e/f/g/ f2 z2 |
[V:3]C/B,/A,/G,/ F,2 zF FF |
[V:4]A,/G,/F,/E,/ D,2 zD DD |
[V:1]d2 zd' d'd' d'/c'/b/a/ |
[V:2]z4 zB BB |
[V:3]F/E/D/C/ B,2 zG GG |
[V:4]D/C/B,/A,/ G,2 z4 |
[V:1]gz e'/d'/c'/b/ az c'/b/a/g/ |
[V:2]B/A/G/F/ Ez c/B/A/G/ Fz |
[V:3]G/F/E/D/ Cz A/G/F/E/ Dz |
[V:4]z8 |
[V:1]fz c'/b/a/g/ fz c'/b/a/g/ |
[V:2]c/B/A/G/ Fz c/B/A/G/ Fz |
[V:3]F/G/A/B/ cz F,/G,/A,/B,/ Cz |
[V:4]D,/E,/F,/G,/ A,z D,/E,/F,/G,/ A,z |
[V:1]f4- f/g/f/g/ f/g/a/f/ |
[V:2]c/B/c/B/ c/d/e/d/ c4 |
[V:3]A/^G/A/G/ A/B/c/B/ A4 |
[V:4]D,8 |
[V:1]g6 f/g/b/g/ |
[V:2][DB][DB] [BD][BD] [DB][BD] [BD][DB] |
[V:3]B,B, B,B, B,B, B,B, |
[V:4]G,G, G,G, G,G, G,G, |
[V:1]dd dd dd dd |
[V:2][BD][DB] [BD][BD] [DB][BD] [BD][BD] |
[V:3]B,B, B,B, B,B, B,B, |
[V:4]G,G, G,G, G,G, G,G, |
[V:1]d'4- d'/^c'/d'/c'/ d'/b/=c'/a/ |
[V:2][D8c8] |
[V:3]A,8 |
[V:4]F,F, F,F, F,F, F,F, |
[V:1]g2 zG _A=A _B=B |
[V:2][D2B2] z6 |
[V:3]B,G GG GG GG |
[V:4]G,2 zB, C^C D^D |
[V:1]c/d/c/B/ c/e/d/c/ B2 z2 |
[V:2]z4 zf/g/ f/g/f/g/ |
[V:3]GG GG GG GG |
[V:4]EE EE DD DD |
[V:1]A/^G/A/G/ A/c/B/A/ =G2 z2 |
[V:2]z4 z^C/D/ C/D/C/D/ |
[V:3]GG GG GG GG |
[V:4]CC CC B,B, B,B, |
[V:1]A4- A/_B/=B/c/ ^c/d/e/d/ |
[V:2]C8 |
[V:3]D8- |
[V:4]F,F, F,F, F,F, F,F, |
[V:1]c/B/A/G/ F/G/A/G/ A/_B/=B/c/ ^c/d/e/d/ |
[V:2]B,4 C4 |
[V:3]D8- |
[V:4]G,G, G,G, F,F, F,F, |
[V:1]c/B/A/G/ F/G/F/G/ B/c/d/e/ =f/g/a/g/ |
[V:2]B,4 G4- |
[V:3]D6 B,2 |
[V:4]G,G, G,G, =F,F, F,F, |
[V:1]=f/e/d/c/ B/c/B/c/ ^c/d/e/^f/ g/a/b/a/ |
[V:2]G8 |
[V:3]C4 E2 ^C2 |
[V:4]E,E, E,E, A,,A,, A,,A,, |
[V:1]g/f/e/d/ ^c/d/c/d/ c'z az |
[V:2]F2 z2 F/G/A/B/ c/d/e/d/ |
[V:3]D2 z2 D/E/F/G/ A/B/c/B/ |
[V:4]D,4 z4 |
[V:1]f/g/a/b/ c'/d'/e'/d'/ c'/b/a/g/ fz |
[V:2]c/B/A/G/ Fz F/G/A/B/ c/d/e/d/ |
[V:3]A/G/F/E/ Dz D/E/F/G/ A/B/c/B/ |
[V:4]D,/E,/F,/G,/ A,/B,/C/B,/ A,/G,/F,/E,/ D,z |
[V:1]f/g/a/b/ c'/d'/e'/d'/ c'/b/a/g/ fz |
[V:2]c/B/A/G/ Fz F/G/A/B/ c/d/e/d/ |
[V:3]A/G/F/E/ Dz D/E/F/G/ A/B/c/B/ |
[V:4]D,/E,/F,/G,/ A,/B,/C/B,/ A,/G,/F,/E,/ D,z |
[V:1]F/G/A/B/ c/d/e/d/ c/B/A/G/ F/E/D/C/ |
[V:2]c/B/A/G/ Fz4 z |
[V:3]A/G/F/E/ Dz D,2 F,2 |
[V:4]D,/E,/F,/G,/ A,/B,/C/B,/ A,/G,/F,/E,/ D,/C,/B,,/A,,/ |
[V:1]_B,6 CD |
[V:2]G,8 |
[V:3]G,2 z6 |
[V:4]G,,/A,,/_B,,/C,/ D,/_E,/D,/C,/ D,/C,/B,,/A,,/ G,,/=F,,/_E,,/D,,/ |
[V:1]_E4 =E4 |
[V:2]_B,8 |
[V:3]G,/F,/G,/F,/ G,/A,/_B,/A,/ G,/F,/G,/F,/ G,/B,/A,/G,/ |
[V:4]C,,4 ^C,,4 |
[V:1]D/A,/F/E/ F/D/A/G/ A/D/c/B/ c/A/f/g/ |
[V:2]A,2 zF/E/ F/D/A/G/ A/F/A/B/ |
[V:3]F,2 z6 |
[V:4]D,,z D,z D,z D,z |
[V:1]f/d/a/g/ a/f/c'/b/ c'/b/a/g/ f/e/d/c/ |
[V:2]c/A/c/B/ c/A/a/g/ a/g/f/e/ d/c/B/A/ |
[V:3]z4 F,4 |
[V:4]D,z D,z D,4 |
[V:1]B/d/^c/d/ c/d/c/d/ ^d/e/d/e/ =d/B/=c/A/ |
[V:2]G2 z2 G2 z2 |
[V:3]G,2 z2 C2 z2 |
[V:4]G,2 z2 C,2 z2 |
[V:1]G2 >>D2 A4 |
[V:2]B,2 >>G2 F4 |
[V:3]D4 C4 |
[V:4]D,D, D,D, D,D, D,D, |
[V:1]G2 zg f/z/e d/z/^c |
[V:2]G2 zd c/z/B A/z/G |
[V:3]B,2 zB A/z/G F/z/E |
[V:4]G,,2 z6 |
[V:1]ed d/z/c B/z/A G/z/F |
[V:2]F2 z6 |
[V:3]Dz2 G F/z/E D/z/C |
[V:4]z2 >E2 D/z/C B,/z/A, |
[V:1]AG G/z/A c/z/B d/z/c |
[V:2]z2 >F2 A/z/G B/z/A |
[V:3]B,2 z6 |
[V:4]G,2 z6 |
[V:1]e2 >>a2 f7/ e//f// |
[V:2]c4 A7/ G//A// |
[V:3]G4 c7/ B//c// |
[V:4]C,4 D,4 |
[V:1]g2 z2 >a2 aa |
[V:2]B2 zg f/z/e d/z/^c |
[V:3]B2 zB A/z/G F/z/E |
[V:4]G,2 z6 |
[V:1]a/g/f/e/ dz2 d dd |
[V:2]ed d/z/c B/z/A G/z/F |
[V:3]D2 zG F/z/E D/z/C |
[V:4]z2 >E2 D/z/C B,/z/A, |
[V:1]d/c/B/A/ GA c/z/B d/z/c |
[V:2]AG Gz4 A |
[V:3]B,2 z6 |
[V:4]G,2 zF, A,/z/G, B,/z3/ |
[V:1]e/z/d =f/z/^d e/z/^f g/z/a |
[V:2]c/z/B d/z4 z/f |
[V:3]z2 >B2 c/z/A B/z/c |
[V:4]z7 D |
[V:1]c'4 b4 |
[V:2]a4 gG GG |
[V:3]F4 G4 |
[V:4]^D4 E4 |
[V:1]a/^g/a/g/ a/b/c'/b/ az3 |
[V:2]G2 >^G2 A/G/A/G/ A/B/c/B/ |
[V:3]EE EE EE EE |
[V:4]CC CC CC CC |
[V:1]a/^g/a/g/ a/b/c'/b/ ad' d'd' |
[V:2]AF FF F/G/A/B/ c/d/e/f/ |
[V:3]DD DD DD F/F/G/A/ |
[V:4]CC CC CC CC |
[V:1]d'8- |
[V:2]g/f/g/f/ g/b/a/g/ f/^e/f/e/ f/a/g/f/ |
[V:3]G2 z6 |
[V:4]B,/^A,/B,/A,/ B,/D/C/B,/ =A,/^G,/A,/G,/ A,/C/B,/A,/ |
[V:1]d'4- d'/^c'/d'/c'/ d'/e'/d'/=c'/ |
[V:2]e/^d/e/d/ e/g/f/e/ =d4- |
[V:3]z4 A4 |
[V:4]G,/F,/G,/F,/ G,/B,/A,/G,/ F,4 |
[V:1]b2 zb c'/z/b e'/z/d' |
[V:2]d2 zg G/z/g G/z/g |
[V:3]B2 zB G/z/B c/z/D |
[V:4]G,2 zG, E,/z/D, C,/z/_B,, |
[V:1]^c'2 z2 =c'2 z2 |
[V:2]G2 z2 f2 z2 |
[V:3]E2 z2 A,2 z2 |
[V:4]A,,2 z2 D,2 z2 |
[V:1]z2 b4 a2 |
[V:2]z2 B4 A2 |
[V:3]z2 G4 F2 |
[V:4]z2 E4 ^D2 |
[V:1]c'4 b4 |
[V:2]f4 g4 |
[V:3]A4 G4 |
[V:4]D4 E4 |
[V:1]z2 a4 bc' |
[V:2]z2 c4 de |
[V:3]z2 E4 DC |
[V:4]z2 C4 B,A, |
[V:1]g2 z2 a2 z2 |
[V:2]B2 z2 c2 z2 |
[V:3]D2 z2 F2 z2 |
[V:4]D2 z2 D,2 z2 |
[V:1]g6 f/g/b/g/ |
[V:2]^cc cc cc cc |
[V:3]AA AA AA AA |
[V:4]E,E, E,E, E,E, E,E, |
[V:1]dd dd dd dd |
[V:2]B6 A/B/c/B/ |
[V:3]G6 F/G/A/G/ |
[V:4]D,2 z6 |
[V:1]d'4- d'/^c'/d'/c'/ d'/b/=c'/a/ |
[V:2][F8A8] |
[V:3]C8 |
[V:4]D,,D,, D,,D,, D,,D,, D,,D,, |
[V:1]g2 zd dd d/c/B/A/ |
[V:2][G2B2] zG F/G/F/G/ F/A/G/F/ |
[V:3]B,2 z2 C4 |
[V:4]G,,G,, G,,G,, G,,G,, G,,G,, |
[V:1]G2 z2 [f2A2D2] z2 |
[V:2]G2 zG F/G/F/G/ F/A/B/c/ |
[V:3]B,2 zD DD D/C/B,/A,/ |
[V:4]G,,G,, G,,G,, G,,G,, G,,G,, |
[V:1][g2B2D2] z6 |]
[V:2]B2 z6 |]
[V:3]G,2 z6 |]
[V:4]G,,2 z6 |]

